!!!OTL: 444. Der Hagestolze.
!!!ODT: 1807
!!!ARE: Europa, Mitteleuropa, Deutschland, Thueringen; Westfalen
!!!SCT: B0444
!!!TXL: @@DE
!!!YEM: Copyright 1995, estate of Helmut Schaffrath.
**kern	**text
*ICvox	*
*Ivox	*
*clefG2	*
*M6/8	*
*k[f#]	*
*G:	*
!LO:TX:a:t=Munter.	!
{8d	Kein
=1	=1
8.b/	ſchö-
16a	-ne-
8g	-res
8.a	frei-
16g	-e-
8f#	-res
=2	=2
4.g	Le-
4d}	-ben,
{8d	als
=3	=3
8e	le-
8e	-dig
8e	ʒu
8f#	ſein,
8f#	giebt
8f#	es
=4	=4
4.g	nicht.
4r}	.
{8b	All
=5	=5
8.a	die
16g	ſich
8f#	in
8.g	Eh'-
16f#	-ſtand
8e	be-
=6	=6
(4f#	-ge-
8a)	.
4dd}	-ben,
{8f#	die
=7	=7
8e	lei-
8e	-ſten
8e	auf
8a	Frei-
8g	-heit
8c#	Ver-
=8	=8
4.d	-ʒicht.
4r}	.
{8d	Sich
=9	=9
8.d	un-
16d	-tern
8d	Pan-
8d	-tof-
8f#	-fel
8g	ʒu
=10	=10
8a	ſchmie-
8a	-gen,
8r	.
4r}	.
{8d	wer
=11	=11
8a	leb-
8a	-te
8a	wohl
8a	glück-
8b	-lich
8cc	denn,
=12	=12
4.b	wer?
4r}	.
{8g	Jch
=13	=13
8g	könn-
8g	-te
8g	mich
8g	da-
8f#	-rein
8g	nicht
=14	=14
8e	fü-
8cc	-gen,
8r	.
4r}	.
{8cc	ich
=15	=15
8b/	blei-
8a	-be
8g	mein
8a	ei-
8g	-ge-
8f#	-ner
=16	=16
8gq	.
(4.dd}	Herr,
{8eeL	.
8ccJ)	.
8a	ich
=17	=17
8g	blei-
8g	-be
8g	mein
8b/	ei-
8a	-ge-
8f#	-ner
=18	=18
4g	Herr.
8r	.
4r}	.
==	==
!!!AGN: Liebes - Lied, anti - Ehe
!!!GTL: Liebeslieder - Liebeslust
!!!ONB: ESAC (Essen Associative Code) Database: BOEHME
!!!AMT: compound duple
!!!AIN: vox
!!!EED: Helmut Schaffrath
!!!EEV: 1.0
!!Aus Westfalen. 1807. Auch in Thüringen, 1840 geֵ¿ungen.
!!!URL-scan: https://archive.org/details/BoehmeVtLieder1895/page/n359/mode/2up
!!!ENC: Anna Maria Matuszewska
!!!EEV: 2024/09/07
*-	*-
